Numix-Light/16/status/teamviewer-indicator-busy.svg

<?xml version="1.0" encoding="UTF-8" standalone="no"?>
<svg
   xmlns:dc="http://purl.org/dc/elements/1.1/"
   xmlns:cc="http://creativecommons.org/ns#"
   xmlns:rdf="http://www.w3.org/1999/02/22-rdf-syntax-ns#"
   xmlns:svg="http://www.w3.org/2000/svg"
   xmlns="http://www.w3.org/2000/svg"
   xmlns:sodipodi="http://sodipodi.sourceforge.net/DTD/sodipodi-0.dtd"
   xmlns:inkscape="http://www.inkscape.org/namespaces/inkscape"
   width="16"
   viewBox="0 0 4.5155556 4.5155556"
   height="16"
   id="svg2"
   version="1.1"
   inkscape:version="0.91 r"
   sodipodi:docname="teamviewer-indicator-busy.svg">
  <metadata
     id="metadata12">
    <rdf:RDF>
      <cc:Work
         rdf:about="">
        <dc:format>image/svg+xml</dc:format>
        <dc:type
           rdf:resource="http://purl.org/dc/dcmitype/StillImage" />
        <dc:title />
      </cc:Work>
    </rdf:RDF>
  </metadata>
  <sodipodi:namedview
     pagecolor="#ffffff"
     bordercolor="#666666"
     borderopacity="1"
     objecttolerance="10"
     gridtolerance="10"
     guidetolerance="10"
     inkscape:pageopacity="0"
     inkscape:pageshadow="2"
     inkscape:window-width="1920"
     inkscape:window-height="1056"
     id="namedview10"
     showgrid="true"
     inkscape:zoom="32"
     inkscape:cx="8.6242813"
     inkscape:cy="6.1707335"
     inkscape:window-x="0"
     inkscape:window-y="24"
     inkscape:window-maximized="1"
     inkscape:current-layer="svg2">
    <inkscape:grid
       type="xygrid"
       id="grid3815" />
  </sodipodi:namedview>
  <defs
     id="defs4" />
  <g
     id="g4144">
    <path
       style="color:#000000;font-style:normal;font-variant:normal;font-weight:normal;font-stretch:normal;font-size:medium;line-height:normal;font-family:sans-serif;text-indent:0;text-align:start;text-decoration:none;text-decoration-line:none;text-decoration-style:solid;text-decoration-color:#000000;letter-spacing:normal;word-spacing:normal;text-transform:none;direction:ltr;block-progression:tb;writing-mode:lr-tb;baseline-shift:baseline;text-anchor:start;white-space:normal;clip-rule:nonzero;display:inline;overflow:visible;visibility:visible;opacity:1;isolation:auto;mix-blend-mode:normal;color-interpolation:sRGB;color-interpolation-filters:linearRGB;solid-color:#000000;solid-opacity:1;fill:#353535;fill-opacity:1;fill-rule:nonzero;stroke:none;stroke-width:0.56444442;stroke-linecap:butt;stroke-linejoin:round;stroke-miterlimit:4;stroke-dasharray:none;stroke-dashoffset:0;stroke-opacity:1;color-rendering:auto;image-rendering:auto;shape-rendering:auto;text-rendering:auto;enable-background:accumulate"
       d="M 8,0 C 3.5935668,0 0,3.5935668 0,8 c 0,4.406433 3.5935668,8 8,8 0.7137343,0 1.40323,-0.102546 2.0625,-0.279297 L 8.9277344,14.587891 9.78125,13.734375 C 9.219045,13.907575 8.6207258,14 8,14 4.674447,14 2,11.325553 2,8 2,4.674447 4.674447,2 8,2 c 3.325553,0 6,2.674447 6,6 0,0.6179104 -0.09198,1.2134591 -0.263672,1.7734375 L 14.587891,8.9277344 15.720703,10.0625 C 15.897454,9.40323 16,8.7137343 16,8 16,3.5935668 12.406433,0 8,0 Z"
       transform="scale(0.2822222,0.2822222)"
       id="path4134-1"
       inkscape:connector-curvature="0"
       sodipodi:nodetypes="ssscccsssscccss" />
    <path
       sodipodi:nodetypes="ccccccccccc"
       inkscape:connector-curvature="0"
       id="path4136-2"
       d="m 0.84666659,2.2577777 0.84666671,-0.5644444 0,0.2822221 1.1288888,0 0,-0.2822222 0.8466666,0.5644444 -0.8466666,0.5644445 0,-0.2822222 -1.1288888,0 0,0.2822221 z"
       style="fill:#353535;fill-opacity:1;fill-rule:evenodd;stroke:none;stroke-width:0.28222221px;stroke-linecap:butt;stroke-linejoin:miter;stroke-opacity:1" />
  </g>
  <path
     style="opacity:1;fill:#353535;fill-opacity:1;fill-rule:nonzero;stroke:none;stroke-width:0.56444442;stroke-linecap:butt;stroke-linejoin:miter;stroke-miterlimit:4;stroke-dasharray:none;stroke-dashoffset:0;stroke-opacity:1"
     d="M 4.1164329,2.9190655 3.7173104,3.3181879 3.3181879,2.9190655 2.9190655,3.3181879 3.3181879,3.7173104 2.9190655,4.1164329 3.3181879,4.5155553 3.7173104,4.1164329 4.1164329,4.5155553 4.5155553,4.1164329 4.1164329,3.7173104 4.5155553,3.3181879 4.1164329,2.9190655 Z"
     id="rect4148"
     inkscape:connector-curvature="0" />
</svg>

<svg xmlns="http://www.w3.org/2000/svg" width="16" viewBox="0 0 4.5155556 4.5155556" height="16">
 <g>
  <path d="m 8 0 c -4.406 0 -8 3.594 -8 8 c 0 4.406 3.594 8 8 8 0.714 0 1.403 -0.103 2.063 -0.279 l -1.135 -1.133 0.854 -0.854 c -0.562 0.173 -1.161 0.266 -1.781 0.266 -3.326 0 -6 -2.674 -6 -6 0 -3.326 2.674 -6 6 -6 c 3.326 0 6 2.674 6 6 0 0.618 -0.092 1.213 -0.264 1.773 l 0.852 -0.846 1.133 1.135 c 0.177 -0.659 0.279 -1.349 0.279 -2.063 0 -4.406 -3.594 -8 -8 -8" transform="scale(0.2822222,0.2822222)" mix-blend-mode="normal" isolation="auto" white-space="normal" solid-opacity="1" solid-color="#000000" style="visibility:visible;shape-rendering:auto;color-interpolation-filters:linearRGB;fill:#353535;opacity:1;image-rendering:auto;fill-opacity:1;stroke:none;display:inline;color:#000;fill-rule:nonzero;color-rendering:auto;color-interpolation:sRGB"/>
  <path d="m 0.847 2.258 0.847 -0.564 0 0.282 1.129 0 0 -0.282 0.847 0.564 -0.847 0.564 0 -0.282 -1.129 0 0 0.282 z" style="fill:#353535;fill-opacity:1;stroke:none;fill-rule:evenodd"/>
 </g>
 <path d="m 4.116 2.919 -0.399 0.399 -0.399 -0.399 -0.399 0.399 0.399 0.399 -0.399 0.399 0.399 0.399 0.399 -0.399 0.399 0.399 0.399 -0.399 -0.399 -0.399 0.399 -0.399 -0.399 -0.399" style="fill:#353535;opacity:1;fill-opacity:1;stroke:none;fill-rule:nonzero"/>
</svg>
